packages/match-icons/sendgrid/svg/bullet-check.svg

<svg fill="none" height="16" viewBox="0 0 16 16" width="16" xmlns="http://www.w3.org/2000/svg"><path clip-rule="evenodd" d="m8 16c4.4183 0 8-3.5817 8-8 0-4.41828-3.5817-8-8-8-4.41828 0-8 3.58172-8 8 0 4.4183 3.58172 8 8 8zm1.08196-8.57502c-.50635.51528-2.02412 2.0598-1.51777 1.54453.01667-.01696-.84477-1.07621-.90374-1.13622-.11537-.11871-.28971-.19046-.45379-.19046-.15767 0-.34483.07045-.45379.19046-.11153.12393-.19485.28699-.18716.46179.00769.1735.06538.33656.18716.46179.42815.43701.85631.87271 1.28318 1.30973.05897.06.11922.1213.17818.1813.24485.2492.66146.2492.9063 0 .3192-.32481.63711-.64832.9563-.97314.50635-.51528 1.01147-1.02925 1.51777-1.54453.1167-.11871.232-.23611.3487-.35482.1166-.11871.1871-.29351.1871-.46179 0-.16045-.0692-.35091-.1871-.46179-.1218-.11349-.282-.19829-.4538-.19046-.1692.00652-.3295.06523-.4512.19046-.31924.32482-.63715.64833-.95634.97315z" fill="#394762" fill-rule="evenodd"/></svg>

<svg width="16" height="16" viewBox="0 0 16 16" fill="none" xmlns="http://www.w3.org/2000/svg">
<path fill-rule="evenodd" clip-rule="evenodd" d="M8 16C12.4183 16 16 12.4183 16 8C16 3.58172 12.4183 0 8 0C3.58172 0 0 3.58172 0 8C0 12.4183 3.58172 16 8 16ZM9.08196 7.42498C8.57561 7.94026 7.05784 9.48478 7.56419 8.96951C7.58086 8.95255 6.71942 7.8933 6.66045 7.83329C6.54508 7.71458 6.37074 7.64283 6.20666 7.64283C6.04899 7.64283 5.86183 7.71328 5.75287 7.83329C5.64134 7.95722 5.55802 8.12028 5.56571 8.29508C5.5734 8.46858 5.63109 8.63164 5.75287 8.75687C6.18102 9.19388 6.60918 9.62958 7.03605 10.0666C7.09502 10.1266 7.15527 10.1879 7.21423 10.2479C7.45908 10.4971 7.87569 10.4971 8.12053 10.2479C8.43973 9.92309 8.75764 9.59958 9.07683 9.27476C9.58318 8.75948 10.0883 8.24551 10.5946 7.73023C10.7113 7.61152 10.8266 7.49412 10.9433 7.37541C11.0599 7.2567 11.1304 7.0819 11.1304 6.91362C11.1304 6.75317 11.0612 6.56271 10.9433 6.45183C10.8215 6.33834 10.6613 6.25354 10.4895 6.26137C10.3203 6.26789 10.16 6.3266 10.0383 6.45183C9.71906 6.77665 9.40115 7.10016 9.08196 7.42498Z" fill="#394762"/>
</svg>
